X: 29
T: Mr Greville's Minuet
R: minuet
M: 3/4
L: 1/16
Z: 2010 John Chambers <jc:trillian.mit.edu>
B: Cantelo ed. "Twenty Four American Country Dances", London 1785 (Longman & Broderip)
S: http://www.archive.org/stream/bibliographyofea00sonnrich/bibliographyofea00sonnrich_djvu.txt
S: http://imslp.org/wiki/24_American_Country_Dances_(Cantelo,_Hezekiah)
N: "Long apoggiatura" in bar 8 rewritten as two quarter notes.
N: The 2-part bars 9-11 not quite doable in ABC; rewritten as a single part.
K: E
%
V: 1
|:\
"f"G3G G4 "p"{B}A2GF | (F8 E2)z2 |\
"f"B3B B4 "p"{d}c2BA | (G8 F2)z2 |\
"f"B4 G4 {B}A2GA |
(B3c/d/) e2d2 c2B2 |\
[B4F8] A4 [G4E4] | ([G4G4E4] [F4D4]) z4 :|\
|:\
"f"B3B B2 "flute"b2g2e2 | "f"c3c c2 "flute"c'2a2e2 |
"f"B3B [bB2]bag fedc | "FP"B4 A4 G4 |\
(A2BA) G4 F4 | (B2cB) A4 G4 |\
"f"(A3B/c/) G4 F4 | E8 z4 :|
%
V: 2 clef=bass middle=d
|: e4 e4 B4 | z4 e4 E4 | e4 e4 A4 | z4 b4 B4 |
   e2b2 g2b2 f2b2 | e2b2 g2b2 e2b2 | d8 e4 | HB4 b2a2 g2f2 :|
|: e4 e4 z4 | [e4A4] [e4A4] z4 | e4 e4 z4 | e4 d4 e4 |
   B8 B4 | e8 E4 | A4 B4 B4 | E8 z4 :|

%%sep 2 1 500

